!!!!SEGMENT: pl-kk--kk-i-389--003-008_anonim--missa-no-3-dona.krn
!!!cenid: 17xx:2475
!!!COM: Anonim
!!!COM-rismID: pe30004985
!!!CDT:
!!!CNT:
!!!OPR: [Missa] No. 3.
!!!OTL: Dona
!!!OMV: 008
!!!PDT:
!!!AGN: Sacred; Mass
!!!YEC: Copyright 2022 Narodowy Instytut Fryderyka Chopina (https://polishscores.org)
!!!YEM: License CC-BY-4.0 (https://creativecommons.org/licenses/by/4.0)
!!!SMS-siglum: PL-Kk
!!!SMS-shelfmark: Kk.I.389
!!!SMS-variant:
!!!SMS-altvar:
!!!SMS-shelfwork: 003-008 M
!!!NIFC-rismSourceID: 1001146182
!!!NIFC-rismChildID: 1001146400
!!!NIFC-islandoraID: pl-kk:6976
!!!URL-pdf-islandora: https://repozytorium.nifc.pl/islandora/object/pl-kk%3A6976/datastream/PDF/view
!!!URL-scan: https://polish.musicsources.pl/pl/lokalizacje/galeria/rekopisy/5999/1 @EN{Scan on Polish Music Sources Website} @PL{Skany w portalu Dziedzictwo Muzyki Polskiej w otwartym dostępie}
!!!IIIF:
!!!ONB-nifc: UWAGA: S – skan 6-7, A – 25-26 , T – 44-45 , B – 63-64 . Części Mszy: Rorate, Kyrie, Gloria, Graduale, Sanctus, Benedictus, Agnus, Dona
!!!AIN: 1 alto 1 bass 1 soprn 1 tenor
!!!key: F
**kern	**text	**kern	**text	**kern	**text	**kern	**text
*part4	*part4	*part3	*part3	*part2	*part2	*part1	*part1
*staff4	*staff4	*staff3	*staff3	*staff2	*staff2	*staff1	*staff1
*I"Basso.	*	*I"Tenore.	*	*I"Alto.	*	*I"Soprano.	*
*I'[B]	*	*I'[T]	*	*I'[A]	*	*I'[S]	*
*ICvox	*	*ICvox	*	*ICvox	*	*ICvox	*
*Ibass	*	*Itenor	*	*Ialto	*	*Isoprn	*
*clefF4	*	*clefC4	*	*clefC3	*	*clefC1	*
*k[b-]	*	*k[b-]	*	*k[b-]	*	*k[b-]	*
*F:	*	*F:	*	*F:	*	*F:	*
*M2/2	*	*M2/2	*	*M2/2	*	*M2/2	*
*met(C.|)	*	*met(C|)	*	*met(C|)	*	*met(C|)	*
=1	=1	=1	=1	=1	=1	=1	=1
!!LO:TX:t=P:problem:all\right	!	!	!	!	!	!	!	!	!	!	!	!	!	!
!	!	!LO:TX:t=P:problem:melodię przepisałem z Kyrie właściwej mszy. Co nieco pozmieniałem belki/caudy,\n żeby pasowały do mojej wersji tekstu.\nFakt podpisania tekstu (na podstawie sopranu i basu) ustaliłem z p. Emilią Ziętek. 	!	!LO:TX:t=P:problem:melodię przepisałem z Kyrie właściwej mszy. Co nieco pozmieniałem belki/caudy,\n żeby pasowały do mojej wersji tekstu.\nFakt podpisania tekstu (na podstawie sopranu i basu) ustaliłem z p. Emilią Ziętek. 	!	!	!
!	!	!LO:TX:b:t=Dona nobis ut Kyrie.	!	!LO:TX:b:t=Dona nobis ut Kyrie.	!	!	!
4.F\	Do-	4.A/yy	Do-	4.c/yy	Do-	4.ff\	Do-
8F\	-na	8G/yy	-na	8B-/yy	-na	8cc\	-na
4A\	no-	8F/Lyy	no-	8A\Lyy	no-	4cc\	no-
.	.	8A/Jyy	.	8f\Jyy	.	.	.
4F\	-bis	8c\Lyy	-bis	8a\Lyy	-bis	4cc\	-bis
.	.	8A\Jyy	.	8f\Jyy	.	.	.
=2	=2	=2	=2	=2	=2	=2	=2
.	.	.	.	8qg/yy	.	.	.
4c\	pa-	4A/yy	pa-	4f\yy	pa-	4cc\	pa-
4C/	-cem	4G/yy	-cem	4e\yy	-cem	4cc\	-cem
4r	.	4ryy	.	4ryy	.	4r	.
4F\	da	8A\yy	do-	8f\yy	do-	8cc\	do-
.	.	8B-\yy	-na	8d\yy	-na	8dd\	-na
!	!	!	!	!	!	!LO:LB:g=original	!
=3	=3	=3	=3	=3	=3	=3	=3
4F\	pa-	8B-/Lyy	no-	8d/Lyy	no-	4ff\	no-
.	.	8A/Jyy	.	8c/Jyy	.	.	.
2BB-/	.	8G/Lyy	-bis	8B-/Lyy	-bis	4cc\	-bis
.	.	8F/Jyy	.	8A/Jyy	.	.	.
*	*	*	*	*	*	*2\right	*
.	.	8A/Lyy	pa-	8c/Lyy	pa-	2cc\	pa-
.	.	8G/yy	.	8B-/yy	.	.	.
4C/	.	8F/yy	.	8A/yy	.	.	.
.	.	8E/Jyy	.	8G/Jyy	.	.	.
=4	=4	=4	=4	=4	=4	=4	=4
*2\right	*	*	*	*	*	*	*
2F\	-cem	2F/yy	-cem	2A/yy	-cem	4cc\	-cem
.	.	.	.	.	.	4r	.
4r	.	8ryy	.	8ryy	.	4r	.
.	.	8A\Lyy	do-	8f\Lyy	do-	.	.
8r	.	8c\Jyy	.	8a\Jyy	.	8r	.
8F\	do-	8A\yy	-na	8f\yy	-na	8cc\	da
=5	=5	=5	=5	=5	=5	=5	=5
4c\	.	4A/yy	no-	4f\yy	no-	4cc\	no-
4C/	-na	4G/yy	-bis	4e\yy	-bis	4cc\	-bis
4r	.	8ryy	.	8ryy	.	4r	.
.	.	8B-\Lyy	do-	8g\Lyy	do-	.	.
8r	.	8d\Jyy	.	8b-\Jyy	.	8r	.
8C/	no-	8B-\yy	-na	8g\yy	-na	8ee\	da
!LO:LB:g=original	!	!	!	!	!	!	!
=6	=6	=6	=6	=6	=6	=6	=6
4C/	.	4B-\yy	no-	4g\yy	no-	4cc\	pa-
4F\	.	4A\yy	-bis	4f\yy	-bis	4cc\	-cem
*	*	*2\right	*	*2\right	*	*	*
2F\	-bis	2c\yy	pa-	2a\yy	pa-	4r	.
.	.	.	.	.	.	8ff\	do-
.	.	.	.	.	.	8ff\	-na
=7	=7	=7	=7	=7	=7	=7	=7
2F\	pa-	8c\Lyy	.	8a\Lyy	.	2cc\	pa-
.	.	8B-\yy	.	8g\yy	.	.	.
.	.	8d\yy	.	8b-\yy	.	.	.
.	.	8c\Jyy	.	8a\Jyy	.	.	.
4BB-/	.	8c\Lyy	.	8a\Lyy	.	2dd\	.
.	.	8B-\yy	.	8g\yy	.	.	.
4BBn/	.	8B-\yy	.	8g\yy	.	.	.
.	.	8A\Jyy	.	8f\Jyy	.	.	.
=8	=8	=8	=8	=8	=8	=8	=8
.	.	.	.	8qf/yy	.	.	.
4C/	.	2G/yy	-cem	2e\yy	-cem	2cc\	-cem
4C/	-cem	.	.	.	.	.	.
2r	.	2ryy	.	2ryy	.	2r	.
!	!	!	!	!	!	!LO:LB:g=original	!
=9	=9	=9	=9	=9	=9	=9	=9
2.C/	do-	4.e\yy	do-	4.g\yy	do-	4.cc\	do-
.	.	8d\yy	-na	8f\yy	-na	8bn\	-na
.	.	4c\yy	no-	4e\yy	no-	4g\	no-
4C/	-na	4e\yy	-bis	4g\yy	-bis	4cc\	-bis
=10	=10	=10	=10	=10	=10	=10	=10
4G\	no-	8e\Lyy	pa-	8g\Lyy	pa-	8cc\L	pa-
.	.	8d\Jyy	.	8f\Jyy	.	8dd\J	.
4GG/	-bis	4Bn\yy	-cem	4d\yy	-cem	4ff\	-cem
2r	.	2ryy	.	2ryy	.	2r	.
=11	=11	=11	=11	=11	=11	=11	=11
4GG/	do-	4.d\yy	do-	4.f\yy	do-	4.bn\	do-
4G\	-na	.	.	.	.	.	.
.	.	8c\yy	-na	8e\yy	-na	8cc\	-na
4G\	no-	4Bn\yy	no-	4d\yy	no-	4dd\	no-
4G\	-bis	4d\yy	-bis	4f\yy	-bis	4b\	-bis
=12	=12	=12	=12	=12	=12	=12	=12
4c\	pa-	4.c\yy	pa-	4.e\yy	pa-	2g/	pa-
4G\	.	.	.	.	.	.	.
.	.	8d\yy	.	8f\yy	.	.	.
4E\	.	4e\yy	.	4g\yy	.	4g/	-cem
4C/	-cem	8c\Lyy	-cem	8e\Lyy	-cem	4g/	da
.	.	8G\Jyy	.	8c\Jyy	.	.	.
!LO:LB:g=original	!	!	!	!	!	!	!
=13	=13	=13	=13	=13	=13	=13	=13
2GG/	pa-	8G\Lyy	pa-	8Bn/Lyy	pa-	1g	pa-
.	.	8A\yy	.	8c/yy	.	.	.
.	.	8A\yy	.	8c/yy	.	.	.
.	.	8Bn\Jyy	.	8d/Jyy	.	.	.
2G\	.	8B\Lyy	.	8d\Lyy	.	.	.
.	.	8c\yy	.	8e\yy	.	.	.
.	.	8c\yy	.	8e\yy	.	.	.
.	.	8d\Jyy	.	8f\Jyy	.	.	.
=14	=14	=14	=14	=14	=14	=14	=14
2G\	-cem	2d\yy	-cem	2f\yy	-cem	2bn\	-cem
2r	.	8ryy	.	8ryy	.	2r	.
.	.	8f\Lyy	do-	8a\Lyy	do-	.	.
.	.	8e\Jyy	.	8g\Jyy	.	.	.
.	.	8d\yy	-na	8f\yy	-na	.	.
!	!	!	!	!	!	!LO:LB:g=original	!
=15	=15	=15	=15	=15	=15	=15	=15
4C\	no-	8c\Lyy	no-	8e\Lyy	no-	4g\	do-
.	.	8e\Jyy	.	8g\Jyy	.	.	.
4F\	-bis	8f\Lyy	-bis	8a\Lyy	-bis	4a\	-na
.	.	8d\Jyy	.	8f\Jyy	.	.	.
4G\	pa-	4c\yy	pa-	4e\yy	pa-	2g\	pa-
4GG/	.	4Bn\yy	.	4d\yy	.	.	.
=16	=16	=16	=16	=16	=16	=16	=16
2C/	-cem	2c\yy	-cem	2e\yy	-cem	2g\	-cem
2r	.	2ryy	.	2ryy	.	2r	.
=17	=17	=17	=17	=17	=17	=17	=17
4.F\	do-	4.A\yy	do-	4.f\yy	do-	4.cc\	do-
8F\	-na	8A\yy	-na	8c\yy	-na	8ff\	-na
4A\	no-	4A\yy	no-	4c\yy	no-	4ff\	no-
4F\	-bis	8B-\Lyy	-bis	8d\Lyy	-bis	4ff\	-bis
.	.	8c\Jyy	.	8e-X\Jyy	.	.	.
=18	=18	=18	=18	=18	=18	=18	=18
4B-\	pa-	8d\Lyy	pa-	8f\Lyy	pa-	2ff\	pa-
.	.	8B-\yy	.	8d\yy	.	.	.
4F\	.	8A\yy	.	8c\yy	.	.	.
.	.	8c\Jyy	.	8e-X\Jyy	.	.	.
4BB-/	-cem	4B-\yy	-cem	4d\yy	-cem	4ff\	-cem
4r	.	4ryy	.	4ryy	.	4r	.
=19	=19	=19	=19	=19	=19	=19	=19
2G\	do-	4.Bn\yy	do-	4.g\yy	do-	4.dd\	do-
.	.	8B\yy	-na	8d\yy	-na	8gg\	-na
4Bn\	.	4B\yy	no-	4d\yy	no-	4gg\	no-
4G\	-na	8c\Lyy	-bis	8en\Lyy	-bis	4gg\	-bis
.	.	8d\Jyy	.	8f\Jyy	.	.	.
!LO:LB:g=original	!	!	!	!	!	!	!
=20	=20	=20	=20	=20	=20	=20	=20
4c\	no-	8e\Lyy	pa-	8g\Lyy	pa-	2gg\	pa-
.	.	8c\yy	.	8e\yy	.	.	.
4G\	.	8B-\yy	.	8d\yy	.	.	.
.	.	8d\Jyy	.	8f\Jyy	.	.	.
4C/	-bis	4c\yy	-cem	4e\yy	-cem	4gg\	-cem
4r	.	4ryy	.	4ryy	.	4r	.
!	!	!	!	!	!	!LO:LB:g=original	!
=21	=21	=21	=21	=21	=21	=21	=21
4.C/	do-	4.G\yy	do-	4.e\yy	do-	4.ee\	do-
8C/	-na	8A\yy	-na	8f\yy	-na	8ee\	-na
4E\	no-	4B-\yy	no-	4g\yy	no-	4ee\	no-
4C/	-bis	4g\yy	-bis	4b-X\yy	-bis	4cc\	-bis
=22	=22	=22	=22	=22	=22	=22	=22
4F\	pa-	4f\yy	pa-	4a\yy	pa-	2cc\	pa-
4C/	.	4e\yy	.	4g\yy	.	.	.
4F\	-cem	4c\yy	-cem	4f\yy	-cem	4a\	-cem
4E\	da	4e\yy	da	4g\yy	da	4cc\	da
=23	=23	=23	=23	=23	=23	=23	=23
4F\	no-	4c\yy	no-	4a\yy	no-	4a\	no-
4A\	-bis	8d\Lyy	-bis	8b-\Lyy	-bis	4dd\	-bis
.	.	8B-\Jyy	.	8g\Jyy	.	.	.
4c\	pa-	4A\yy	pa-	4f\yy	pa-	2cc\	pa-
4C/	.	8B-\Lyy	.	8g\Lyy	.	.	.
.	.	8G\Jyy	.	8e\Jyy	.	.	.
=24	=24	=24	=24	=24	=24	=24	=24
2F\	-cem	2A\yy	-cem	2f\yy	-cem	2cc\	-cem.
2r	.	2ryy	.	2ryy	.	2r	.
=25	=25	=25	=25	=25	=25	=25	=25
!	!	!	!	!yyLO:TX:t=P:problem:ze względu na tenor powtórzyłem takty 17-24	!	!	!
4.F\	do-	4.A\yy	do-	4.f\yy	do-	4.cc\	Do-
8F\	-na	8A\yy	-na	8c\yy	-na	8ff\	-na
4A\	no-	4A\yy	no-	4c\yy	no-	4ff\	no-
4F\	-bis	8B-\Lyy	-bis	8d\Lyy	-bis	4ff\	-bis
.	.	8c\Jyy	.	8e-X\Jyy	.	.	.
=26	=26	=26	=26	=26	=26	=26	=26
4B-\	pa-	8d\Lyy	pa-	8f\Lyy	pa-	2ff\	pa-
.	.	8B-\yy	.	8d\yy	.	.	.
4F\	.	8A\yy	.	8c\yy	.	.	.
.	.	8c\Jyy	.	8e-X\Jyy	.	.	.
4BB-/	-cem	4B-\yy	-cem	4d\yy	-cem	4ff\	-cem
4r	.	4ryy	.	4ryy	.	4r	.
!LO:LB:g=original	!	!	!	!	!	!LO:LB:g=original	!
=27	=27	=27	=27	=27	=27	=27	=27
2G\	do-	4.Bn\yy	do-	4.g\yy	do-	4.dd\	Do-
.	.	8B\yy	-na	8d\yy	-na	8gg\	-na
4Bn\	.	4Bn\yy	no-	4d\yy	no-	4gg\	no-
4G\	-na	8c\Lyy	-bis	8en\Lyy	-bis	4gg\	-bis
.	.	8d\Jyy	.	8f\Jyy	.	.	.
=28	=28	=28	=28	=28	=28	=28	=28
4c\	no-	8e\Lyy	pa-	8g\Lyy	pa-	2gg\	pa-
.	.	8c\yy	.	8e\yy	.	.	.
4G\	.	8Bn\yy	.	8d\yy	.	.	.
.	.	8d\Jyy	.	8f\Jyy	.	.	.
4C/	-bis	4c\yy	-cem	4e\yy	-cem	4gg\	-cem
4r	.	4ryy	.	4ryy	.	4r	.
=29	=29	=29	=29	=29	=29	=29	=29
2C/	do-	4.G/yy	do-	4.e\yy	do-	4.ee\	do-
.	.	8A\yy	-na	8f\yy	-na	8ee\	-na
4E/	.	4B-\yy	no-	4g\yy	no-	4ee\	no-
4C/	-na	4g\yy	-bis	4b-X\yy	-bis	4cc\	-bis
=30	=30	=30	=30	=30	=30	=30	=30
4F\	no-	4f\yy	pa-	4a\yy	pa-	2cc\	pa-
4C\	.	4e\yy	.	4g\yy	.	.	.
4F\	.	4c\yy	.	4f\yy	.	4a\	.
4E\	-bis	4e\yy	-cem	4g\yy	-cem	4cc\	-cem
=31	=31	=31	=31	=31	=31	=31	=31
4F\	pa-	4c\yy	do-	4a\yy	do-	4a\	do-
4A\	.	8d\Lyy	-na	8b-\Lyy	-na	4dd\	-na
.	.	8B-\Jyy	.	8g\Jyy	.	.	.
4c\	.	4A\yy	pa-	4f\yy	pa-	2cc\	pa-
4C/	.	8B-\Lyy	.	8g\Lyy	.	.	.
.	.	8G\Jyy	.	8e\Jyy	.	.	.
=32	=32	=32	=32	=32	=32	=32	=32
2F\	-cem.	2A\yy	-cem	2f\yy	-cem	1cc	-cem.
2r	.	2ryy	.	2ryy	.	.	.
==	==	==	==	==	==	==	==
*-	*-	*-	*-	*-	*-	*-	*-
!!!system-decoration: [(s1,s2,s3,s4)]
!!!ENC: Andrzej Gręziak
!!!END: 2023-11-06
!!!EED: Jan Barakat
!!!EEV: 2023-11-29
